images/storj.svg

<svg height="250" viewBox="0 0 250 250" width="250" xmlns="http://www.w3.org/2000/svg"><g fill="#2683ff"><path d="m35.558594 170.011719c-3.777344 0-6.835938 3.0625-6.835938 6.835937 0 3.777344 3.058594 6.835938 6.835938 6.835938s6.835937-3.058594 6.835937-6.835938c0-1.210937-.332031-2.3125-.882812-3.417968-1.242188-2.109376-3.503907-3.40625-5.953125-3.414063m96.582031-148.738281c0-3.773438-3.058594-6.835938-6.835937-6.835938-3.773438 0-6.835938 3.0625-6.835938 6.835938 0 3.777344 3.0625 6.835937 6.835938 6.835937 3.765624-.019531 6.816406-3.066406 6.835937-6.835937m83.359375 59.320312c3.777344 0 6.835938-3.0625 6.835938-6.835937 0-3.777344-3.058594-6.839844-6.835938-6.839844s-6.835938 3.0625-6.835938 6.839844c.003907 1.160156.308594 2.296875.882813 3.304687 1.195313 2.171875 3.476563 3.523438 5.953125 3.53125m-176.75-13.121094c-3.308594-1.875-7.386719-.773437-9.261719 2.535157-1.875 3.308593-.769531 7.386719 2.535157 9.261719 3.308593 1.871093 7.390624.769531 9.261718-2.539063 1.875-3.195313.773438-7.386719-2.535156-9.257813m179.5 103.859376c-.992188-.664063-2.203125-.882813-3.417969-.992188-2.464843-.035156-4.753906 1.261719-5.996093 3.390625-1.242188 2.128906-1.242188 4.761719 0 6.886719 1.242187 2.128906 3.53125 3.425781 5.996093 3.394531 2.425781 0 4.625-1.324219 5.953125-3.417969 1.875-3.199218.773438-7.390625-2.535156-9.261718m-99.78125 57c-.332031 3.085937 1.542969 6.0625 4.410156 7.164062.660156.222656 1.433594.441406 2.09375.441406 3.449219-.003906 6.410156-2.457031 7.058594-5.84375.507812-3.695312-2.054688-7.109375-5.742188-7.65625-3.691406-.542968-7.132812 1.988282-7.710937 5.671875-.058594.058594-.097656.136719-.109375.21875"/><path d="m224.976562 158.765625c-.8125-.46875-1.660156-.875-2.535156-1.210937v-63.839844c.992188-.328125 1.984375-.882813 2.976563-1.320313 10.25-5.734375 14-18.746093 8.269531-29-5.734375-10.257812-18.746094-14-29-8.269531-.882812.441406-1.65625.992188-2.425781 1.542969l-56.230469-32.523438c.109375-.992187.21875-1.875.21875-2.867187 0-11.796875-9.585938-21.277344-21.273438-21.277344s-21.5 9.703125-21.5 21.390625c0 .992187.109376 1.875.21875 2.863281l-55.789062 32.304688c-6.039062-4.730469-14.15625-5.851563-21.25-2.933594-7.097656 2.917969-12.078125 9.425781-13.039062 17.035156-.964844 7.613282 2.238281 15.15625 8.382812 19.75.769531.550782 1.542969 1.101563 2.425781 1.652344.898438.550781 1.863281.996094 2.867188 1.324219v63.726562c-10.917969 4.410157-16.210938 16.761719-11.800781 27.671875 4.410156 10.914063 16.757812 16.207032 27.675781 11.796875.992187-.328125 1.875-.878906 2.753906-1.320312.882813-.550781 1.765625-1.101563 2.648437-1.765625l55.234376 31.863281c-1.875 11.578125 6.066406 22.492187 17.644531 24.367187 11.574219 1.875 22.492187-6.0625 24.363281-17.640624.222656-1.210938.222656-2.316407.222656-3.527344-.015625-1.035156-.089844-2.066406-.222656-3.089844l54.910156-31.640625c.882813.660156 1.761719 1.320313 2.753906 1.875 10.25 5.734375 23.265626 2.09375 29-8.160156 5.507813-10.253907 2.203126-22.824219-7.5-28.777344zm3.859376 26.683594c-4.519532 7.714843-14.554688 10.363281-22.273438 5.84375-6.171875-3.640625-9.261719-10.808594-7.605469-17.75l-25.800781-15.105469c-8.140625 8.253906-20.441406 10.816406-31.203125 6.5-3.859375 1.210938-12.125 1.984375-12.125 1.984375v45.425781c9.042969 2.753906 14 12.347656 11.25 21.386719s-12.347656 14-21.390625 11.25c-.109375 0-.21875-.109375-.328125-.109375-.773437-.21875-1.4375-.550781-2.097656-.882812-8.488281-4.191407-11.796875-14.554688-7.605469-22.933594 2.09375-4.1875 5.84375-7.273438 10.25-8.707032v-46.308593c-3.238281-1-6.40625-2.21875-9.484375-3.640625-9.972656 1.996094-20.316406-.550782-28.222656-6.945313l-30.761719 17.75c2.097656 8.796875-3.332031 17.628907-12.125 19.730469-8.796875 2.097656-17.628906-3.328125-19.730469-12.125-2.101562-8.792969 3.324219-17.625 12.117188-19.730469 5.292969-1.320312 10.914062.21875 15 3.96875l28.777343-16.648437c-9.703124-13.671875-8.160156-32.414063 3.75-44.324219l-32.75-18.742187c-6.5 6.175781-16.757812 5.84375-22.933593-.769532-2.964844-3.152344-4.554688-7.359375-4.410157-11.683594.148438-4.324218 2.011719-8.414062 5.183594-11.363281 6.613282-6.171875 16.757813-5.84375 22.929688.773438 3.75 3.96875 5.183594 9.480469 3.96875 14.773437l36.273437 20.835938c4.753907-2.554688 10.042969-3.953125 15.4375-4.078125 5.074219-4.1875 18.074219-8.488281 18.074219-8.488281v-49.613282c-8.046875-2.425781-12.570312-10.914062-10.144531-18.964844 2.425781-8.046874 10.921875-12.457031 18.972656-10.03125 8.046875 2.421876 12.566406 10.914063 10.140625 18.960938-1.453125 4.875-5.269531 8.6875-10.140625 10.144531v48.625s23.8125 5.953125 31.3125 14.882813l38.585937-21.9375c-1.984374-8.820313 3.417969-17.640625 12.238282-19.625 8.824218-1.984375 17.644531 3.417968 19.625 12.238281 1.984375 8.820313-3.417969 17.640625-12.238282 19.625-5.332031 1.199219-10.910156-.328125-14.882812-4.082031l-38.148438 21.609375c1.101563 2.316406 2.09375 4.625 2.757813 7.054687 11.796875 8.050782 15.984375 23.484375 9.699219 36.386719l25.25 14.660156c5.226562-4.867187 13.03125-5.722656 19.183594-2.09375 7.609374 4.519531 10.25 14.445313 5.625 22.273438zm0 0"/><path d="m157.722656 122.824219c-.113281-.882813-.222656-1.652344-.332031-2.535157-.109375-.597656-.257813-1.1875-.441406-1.765624 0-.21875-.109375-.441407-.109375-.660157-.222656-.660156-.441406-1.433593-.664063-2.097656v-.109375c-1.398437-3.699219-3.539062-7.074219-6.285156-9.921875-.660156-.660156-1.210937-1.210937-1.984375-1.875l-.109375-.109375c-.660156-.550781-1.320313-1.101562-2.09375-1.542969l-.109375-.109375c-.664062-.441406-1.433594-.992187-2.097656-1.324218l-.109375-.109376c-.710938-.410156-1.449219-.78125-2.203125-1.101562l-.222656-.109375c-.769532-.332031-1.542969-.664063-2.421876-.996094l-.113281-.109375c-.878906-.21875-1.652343-.550781-2.535156-.660156h-.109375c-.871094-.199219-1.757812-.347656-2.644531-.441406h-.113281c-4.695313-.667969-9.484376-.097656-13.890626 1.652344l-.550781.441406c-.660156.222656-1.765625.773437-2.425781 1.105468-.34375.226563-.714844.410157-1.101562.550782-.332032.109375-.882813.550781-1.214844.769531-.328125.21875-1.101563.773437-1.542969 1.101563l-.332031.222656c-.660156.441406-1.210938.992187-1.875 1.542968l-.550782.550782c-.660156.660156-1.210937 1.210937-1.761718 1.875-1.3125-.21875-2.640625-.332032-3.96875-.332032-.441406 0-.773438 0-1.105469.109376-5.070313.222656-9.921875 2.316406-13.667969 5.734374-1.875 1.65625-3.417968 3.75-4.625 5.953126l-.117187.226562c-.339844.640625-.636719 1.304688-.882813 1.984375-.113281.21875-.113281.332031-.222656.550781-.230469.570313-.417969 1.164063-.550781 1.765625-.109375.21875-.109375.550781-.21875.769531-.109375.550782-.21875 1.101563-.332031 1.765626 0 .21875-.109376.441406-.109376.769531-.09375.84375-.128906 1.691406-.109374 2.535156-.019532.703125.015624 1.402344.109374 2.097656 0 .21875.109376.441407.109376.769531.109374.441407.109374.882813.21875 1.324219.113281.4375.113281.550781.222656.882813.125.316406.199218.652344.21875.992187 0 .332031.21875.660157.332031.992188.089844.265625.199219.523437.332031.769531.164063.359375.3125.730469.441406 1.105469.109376.21875.21875.328125.21875.550781 1.550782 3.628906 4.164063 6.707031 7.5 8.820312 1.652344.992188 3.308594 1.875 5.070313 2.421876.683594.238281 1.382813.421874 2.09375.554687l.222656.109375 1.984375.328125.441406.113281c.769532.109375 1.542969.109375 2.425782.109375 2.976562 0 5.84375-.550781 8.488281-1.765625.660156.441406 1.214844.882813 1.875 1.324219l.21875.109375c.554687.332031 1.214844.660156 1.875.992188h.109375c6.300781 3.210937 13.574219 3.957031 20.398438 2.09375h.109374c.992188-.210938 1.953126-.546876 2.867188-.992188l2.976562-1.320312c2.835938 2.210937 6.328126 3.414062 9.921876 3.417968.773437 0 1.433593-.113281 2.207031-.113281l.550781-.109375c.707031-.105469 1.40625-.25 2.09375-.441406.679688-.207032 1.34375-.464844 1.984375-.769532l.332031-.109374c.660156-.332032 1.210938-.664063 1.875-.992188 2.757813-1.765625 4.851563-4.410156 6.0625-7.390625.441406-.992187.664063-1.984375.882813-2.972656v-.332031c.109375-.441407.109375-.882813.222656-1.324219 0-.550781.109375-1.101563.109375-1.652344 0-7.277344-4.519531-13.5625-11.25-15.65625"/></g></svg>

<svg xmlns="http://www.w3.org/2000/svg" xmlns:xlink="http://www.w3.org/1999/xlink" width="250px" height="250px" viewBox="0 0 250 250" version="1.1">
<g id="surface1">
<path style=" stroke:none;fill-rule:nonzero;fill:rgb(14.901961%,51.372552%,100%);fill-opacity:1;" d="M 35.558594 170.011719 C 31.78125 170.011719 28.722656 173.074219 28.722656 176.847656 C 28.722656 180.625 31.78125 183.683594 35.558594 183.683594 C 39.335938 183.683594 42.394531 180.625 42.394531 176.847656 C 42.394531 175.636719 42.0625 174.535156 41.511719 173.429688 C 40.269531 171.320312 38.007812 170.023438 35.558594 170.015625 M 132.140625 21.277344 C 132.140625 17.503906 129.082031 14.441406 125.304688 14.441406 C 121.53125 14.441406 118.46875 17.503906 118.46875 21.277344 C 118.46875 25.054688 121.53125 28.113281 125.304688 28.113281 C 129.070312 28.09375 132.121094 25.046875 132.140625 21.277344 M 215.5 80.597656 C 219.277344 80.597656 222.335938 77.535156 222.335938 73.761719 C 222.335938 69.984375 219.277344 66.921875 215.5 66.921875 C 211.722656 66.921875 208.664062 69.984375 208.664062 73.761719 C 208.667969 74.921875 208.972656 76.058594 209.546875 77.066406 C 210.742188 79.238281 213.023438 80.589844 215.5 80.597656 M 38.75 67.476562 C 35.441406 65.601562 31.363281 66.703125 29.488281 70.011719 C 27.613281 73.320312 28.71875 77.398438 32.023438 79.273438 C 35.332031 81.144531 39.414062 80.042969 41.285156 76.734375 C 43.160156 73.539062 42.058594 69.347656 38.75 67.476562 M 218.25 171.335938 C 217.257812 170.671875 216.046875 170.453125 214.832031 170.34375 C 212.367188 170.308594 210.078125 171.605469 208.835938 173.734375 C 207.59375 175.863281 207.59375 178.496094 208.835938 180.621094 C 210.078125 182.75 212.367188 184.046875 214.832031 184.015625 C 217.257812 184.015625 219.457031 182.691406 220.785156 180.597656 C 222.660156 177.398438 221.558594 173.207031 218.25 171.335938 M 118.46875 228.335938 C 118.136719 231.421875 120.011719 234.398438 122.878906 235.5 C 123.539062 235.722656 124.3125 235.941406 124.972656 235.941406 C 128.421875 235.9375 131.382812 233.484375 132.03125 230.097656 C 132.539062 226.402344 129.976562 222.988281 126.289062 222.441406 C 122.597656 221.898438 119.15625 224.429688 118.578125 228.113281 C 118.519531 228.171875 118.480469 228.25 118.46875 228.332031 "/>
<path style=" stroke:none;fill-rule:nonzero;fill:rgb(14.901961%,51.372552%,100%);fill-opacity:1;" d="M 224.976562 158.765625 C 224.164062 158.296875 223.316406 157.890625 222.441406 157.554688 L 222.441406 93.714844 C 223.433594 93.386719 224.425781 92.832031 225.417969 92.394531 C 235.667969 86.660156 239.417969 73.648438 233.6875 63.394531 C 227.953125 53.136719 214.941406 49.394531 204.6875 55.125 C 203.804688 55.566406 203.03125 56.117188 202.261719 56.667969 L 146.03125 24.144531 C 146.140625 23.152344 146.25 22.269531 146.25 21.277344 C 146.25 9.480469 136.664062 0 124.976562 0 C 113.289062 0 103.476562 9.703125 103.476562 21.390625 C 103.476562 22.382812 103.585938 23.265625 103.695312 24.253906 L 47.90625 56.558594 C 41.867188 51.828125 33.75 50.707031 26.65625 53.625 C 19.558594 56.542969 14.578125 63.050781 13.617188 70.660156 C 12.652344 78.273438 15.855469 85.816406 22 90.410156 C 22.769531 90.960938 23.542969 91.511719 24.425781 92.0625 C 25.324219 92.613281 26.289062 93.058594 27.292969 93.386719 L 27.292969 157.113281 C 16.375 161.523438 11.082031 173.875 15.492188 184.785156 C 19.902344 195.699219 32.25 200.992188 43.167969 196.582031 C 44.160156 196.253906 45.042969 195.703125 45.921875 195.261719 C 46.804688 194.710938 47.6875 194.160156 48.570312 193.496094 L 103.804688 225.359375 C 101.929688 236.9375 109.871094 247.851562 121.449219 249.726562 C 133.023438 251.601562 143.941406 243.664062 145.8125 232.085938 C 146.035156 230.875 146.035156 229.769531 146.035156 228.558594 C 146.019531 227.523438 145.945312 226.492188 145.8125 225.46875 L 200.722656 193.828125 C 201.605469 194.488281 202.484375 195.148438 203.476562 195.703125 C 213.726562 201.4375 226.742188 197.796875 232.476562 187.542969 C 237.984375 177.289062 234.679688 164.71875 224.976562 158.765625 Z M 228.835938 185.449219 C 224.316406 193.164062 214.28125 195.8125 206.5625 191.292969 C 200.390625 187.652344 197.300781 180.484375 198.957031 173.542969 L 173.15625 158.4375 C 165.015625 166.691406 152.714844 169.253906 141.953125 164.9375 C 138.09375 166.148438 129.828125 166.921875 129.828125 166.921875 L 129.828125 212.347656 C 138.871094 215.101562 143.828125 224.695312 141.078125 233.734375 C 138.328125 242.773438 128.730469 247.734375 119.6875 244.984375 C 119.578125 244.984375 119.46875 244.875 119.359375 244.875 C 118.585938 244.65625 117.921875 244.324219 117.261719 243.992188 C 108.773438 239.800781 105.464844 229.4375 109.65625 221.058594 C 111.75 216.871094 115.5 213.785156 119.90625 212.351562 L 119.90625 166.042969 C 116.667969 165.042969 113.5 163.824219 110.421875 162.402344 C 100.449219 164.398438 90.105469 161.851562 82.199219 155.457031 L 51.4375 173.207031 C 53.535156 182.003906 48.105469 190.835938 39.3125 192.9375 C 30.515625 195.035156 21.683594 189.609375 19.582031 180.8125 C 17.480469 172.019531 22.90625 163.1875 31.699219 161.082031 C 36.992188 159.761719 42.613281 161.300781 46.699219 165.050781 L 75.476562 148.402344 C 65.773438 134.730469 67.316406 115.988281 79.226562 104.078125 L 46.476562 85.335938 C 39.976562 91.511719 29.71875 91.179688 23.542969 84.566406 C 20.578125 81.414062 18.988281 77.207031 19.132812 72.882812 C 19.28125 68.558594 21.144531 64.46875 24.316406 61.519531 C 30.929688 55.347656 41.074219 55.675781 47.246094 62.292969 C 50.996094 66.261719 52.429688 71.773438 51.214844 77.066406 L 87.488281 97.902344 C 92.242188 95.347656 97.53125 93.949219 102.925781 93.824219 C 108 89.636719 121 85.335938 121 85.335938 L 121 35.722656 C 112.953125 33.296875 108.429688 24.808594 110.855469 16.757812 C 113.28125 8.710938 121.777344 4.300781 129.828125 6.726562 C 137.875 9.148438 142.394531 17.640625 139.96875 25.6875 C 138.515625 30.5625 134.699219 34.375 129.828125 35.832031 L 129.828125 84.457031 C 129.828125 84.457031 153.640625 90.410156 161.140625 99.339844 L 199.726562 77.402344 C 197.742188 68.582031 203.144531 59.761719 211.964844 57.777344 C 220.789062 55.792969 229.609375 61.195312 231.589844 70.015625 C 233.574219 78.835938 228.171875 87.65625 219.351562 89.640625 C 214.019531 90.839844 208.441406 89.3125 204.46875 85.558594 L 166.320312 107.167969 C 167.421875 109.484375 168.414062 111.792969 169.078125 114.222656 C 180.875 122.273438 185.0625 137.707031 178.777344 150.609375 L 204.027344 165.269531 C 209.253906 160.402344 217.058594 159.546875 223.210938 163.175781 C 230.820312 167.695312 233.460938 177.621094 228.835938 185.449219 Z M 228.835938 185.449219 "/>
<path style=" stroke:none;fill-rule:nonzero;fill:rgb(14.901961%,51.372552%,100%);fill-opacity:1;" d="M 157.722656 122.824219 C 157.609375 121.941406 157.5 121.171875 157.390625 120.289062 C 157.28125 119.691406 157.132812 119.101562 156.949219 118.523438 C 156.949219 118.304688 156.839844 118.082031 156.839844 117.863281 C 156.617188 117.203125 156.398438 116.429688 156.175781 115.765625 L 156.175781 115.65625 C 154.777344 111.957031 152.636719 108.582031 149.890625 105.734375 C 149.230469 105.074219 148.679688 104.523438 147.90625 103.859375 L 147.796875 103.75 C 147.136719 103.199219 146.476562 102.648438 145.703125 102.207031 L 145.59375 102.097656 C 144.929688 101.65625 144.160156 101.105469 143.496094 100.773438 L 143.386719 100.664062 C 142.675781 100.253906 141.9375 99.882812 141.183594 99.5625 L 140.960938 99.453125 C 140.191406 99.121094 139.417969 98.789062 138.539062 98.457031 L 138.425781 98.347656 C 137.546875 98.128906 136.773438 97.796875 135.890625 97.6875 L 135.78125 97.6875 C 134.910156 97.488281 134.023438 97.339844 133.136719 97.246094 L 133.023438 97.246094 C 128.328125 96.578125 123.539062 97.148438 119.132812 98.898438 L 118.582031 99.339844 C 117.921875 99.5625 116.816406 100.113281 116.15625 100.445312 C 115.8125 100.671875 115.441406 100.855469 115.054688 100.996094 C 114.722656 101.105469 114.171875 101.546875 113.839844 101.765625 C 113.511719 101.984375 112.738281 102.539062 112.296875 102.867188 L 111.964844 103.089844 C 111.304688 103.53125 110.753906 104.082031 110.089844 104.632812 L 109.539062 105.183594 C 108.878906 105.84375 108.328125 106.394531 107.777344 107.058594 C 106.464844 106.839844 105.136719 106.726562 103.808594 106.726562 C 103.367188 106.726562 103.035156 106.726562 102.703125 106.835938 C 97.632812 107.058594 92.78125 109.152344 89.035156 112.570312 C 87.160156 114.226562 85.617188 116.320312 84.410156 118.523438 L 84.292969 118.75 C 83.953125 119.390625 83.65625 120.054688 83.410156 120.734375 C 83.296875 120.953125 83.296875 121.066406 83.1875 121.285156 C 82.957031 121.855469 82.769531 122.449219 82.636719 123.050781 C 82.527344 123.269531 82.527344 123.601562 82.417969 123.820312 C 82.308594 124.371094 82.199219 124.921875 82.085938 125.585938 C 82.085938 125.804688 81.976562 126.027344 81.976562 126.355469 C 81.882812 127.199219 81.847656 128.046875 81.867188 128.890625 C 81.847656 129.59375 81.882812 130.292969 81.976562 130.988281 C 81.976562 131.207031 82.085938 131.429688 82.085938 131.757812 C 82.195312 132.199219 82.195312 132.640625 82.304688 133.082031 C 82.417969 133.519531 82.417969 133.632812 82.527344 133.964844 C 82.652344 134.28125 82.726562 134.617188 82.746094 134.957031 C 82.746094 135.289062 82.964844 135.617188 83.078125 135.949219 C 83.167969 136.214844 83.277344 136.472656 83.410156 136.71875 C 83.574219 137.078125 83.722656 137.449219 83.851562 137.824219 C 83.960938 138.042969 84.070312 138.152344 84.070312 138.375 C 85.621094 142.003906 88.234375 145.082031 91.570312 147.195312 C 93.222656 148.1875 94.878906 149.070312 96.640625 149.617188 C 97.324219 149.855469 98.023438 150.039062 98.734375 150.171875 L 98.957031 150.28125 L 100.941406 150.609375 L 101.382812 150.722656 C 102.152344 150.832031 102.925781 150.832031 103.808594 150.832031 C 106.785156 150.832031 109.652344 150.28125 112.296875 149.066406 C 112.957031 149.507812 113.511719 149.949219 114.171875 150.390625 L 114.390625 150.5 C 114.945312 150.832031 115.605469 151.160156 116.265625 151.492188 L 116.375 151.492188 C 122.675781 154.703125 129.949219 155.449219 136.773438 153.585938 L 136.882812 153.585938 C 137.875 153.375 138.835938 153.039062 139.75 152.59375 L 142.726562 151.273438 C 145.5625 153.484375 149.054688 154.6875 152.648438 154.691406 C 153.421875 154.691406 154.082031 154.578125 154.855469 154.578125 L 155.40625 154.46875 C 156.113281 154.363281 156.8125 154.21875 157.5 154.027344 C 158.179688 153.820312 158.84375 153.5625 159.484375 153.257812 L 159.816406 153.148438 C 160.476562 152.816406 161.027344 152.484375 161.691406 152.15625 C 164.449219 150.390625 166.542969 147.746094 167.753906 144.765625 C 168.195312 143.773438 168.417969 142.78125 168.636719 141.792969 L 168.636719 141.460938 C 168.746094 141.019531 168.746094 140.578125 168.859375 140.136719 C 168.859375 139.585938 168.96875 139.035156 168.96875 138.484375 C 168.96875 131.207031 164.449219 124.921875 157.71875 122.828125 "/>
</g>
</svg>
